; generated by Slic3r 0.9.3 on 2012-10-07 at 14:27:12

; layer_height = 0.2
; perimeters = 1
; solid_layers = 5
; fill_density = 0.2
; perimeter_speed = 90
; infill_speed = 90
; travel_speed = 100
; scale = 1
; nozzle_diameter = 0.5
; filament_diameter = 2.9
; extrusion_multiplier = 1
; single wall width = 0.70mm

;G28 ; home all axes
G90 ; use absolute coordinates
G21 ; set units to millimeters
G92 E0
M82 ; use absolute distances for extrusion
G1 F600.000 E-1.00000
G92 E0
G1 Z0.200 F6000.000
G1 X9.630 Y24.630
G1 F600.000 E1.00000
G1 X25.030 Y9.250 F3000.000 E1.43303
G1 X25.470 Y8.910 E1.44409
G1 X25.930 Y8.610 E1.45502
G1 X26.670 Y8.230 E1.47157
G1 X27.180 Y8.030 E1.48247
G1 X27.980 Y7.810 E1.49897
G1 X28.520 Y7.720 E1.50987
G1 X28.800 Y7.690 E1.51547
G1 X29.350 Y7.670 E1.52642
G1 X121.190 Y7.690 E3.35365
G1 X121.740 Y7.760 E3.36468
G1 X122.010 Y7.810 E3.37015
G1 X122.810 Y8.030 E3.38665
G1 X123.320 Y8.230 E3.39755
G1 X124.060 Y8.610 E3.41410
G1 X124.520 Y8.910 E3.42503
G1 X124.960 Y9.250 E3.43609
G1 X140.740 Y25.030 E3.88010
G1 X141.080 Y25.470 E3.89116
G1 X141.380 Y25.930 E3.90208
G1 X141.760 Y26.670 E3.91864
G1 X141.960 Y27.180 E3.92953
G1 X142.180 Y27.980 E3.94604
G1 X142.270 Y28.520 E3.95693
G1 X142.300 Y28.800 E3.96254
G1 X142.300 Y121.190 E5.80071
G1 X142.230 Y121.740 E5.81174
G1 X142.180 Y122.010 E5.81721
G1 X141.960 Y122.810 E5.83371
G1 X141.760 Y123.320 E5.84461
G1 X141.380 Y124.060 E5.86116
G1 X141.080 Y124.520 E5.87209
G1 X140.740 Y124.960 E5.88315
G1 X124.960 Y140.740 E6.32716
G1 X124.520 Y141.080 E6.33822
G1 X124.060 Y141.380 E6.34915
G1 X123.320 Y141.760 E6.36570
G1 X122.810 Y141.960 E6.37659
G1 X122.010 Y142.180 E6.39310
G1 X121.470 Y142.270 E6.40399
G1 X121.190 Y142.300 E6.40960
G1 X120.640 Y142.320 E6.42055
G1 X28.800 Y142.300 E8.24778
G1 X28.250 Y142.230 E8.25881
G1 X27.980 Y142.180 E8.26427
G1 X27.180 Y141.960 E8.28078
G1 X26.670 Y141.760 E8.29168
G1 X25.930 Y141.380 E8.30823
G1 X25.470 Y141.080 E8.31916
G1 X25.030 Y140.740 E8.33022
G1 X9.250 Y124.960 E8.77422
G1 X8.910 Y124.520 E8.78529
G1 X8.610 Y124.060 E8.79621
G1 X8.230 Y123.320 E8.81276
G1 X8.030 Y122.810 E8.82366
G1 X7.810 Y122.010 E8.84017
G1 X7.720 Y121.470 E8.85106
G1 X7.690 Y121.190 E8.85666
G1 X7.690 Y28.800 E10.69484
G1 X7.760 Y28.250 E10.70587
G1 X7.810 Y27.980 E10.71133
G1 X8.030 Y27.180 E10.72784
G1 X8.230 Y26.670 E10.73874
G1 X8.610 Y25.930 E10.75529
G1 X8.910 Y25.470 E10.76622
G1 X9.159 Y25.147 E10.77433
G1 F600.000 E9.77433
G92 E0
G1 X12.624 Y28.205 F6000.000
G1 F600.000 E1.00000
G1 X28.205 Y12.624 F3000.000 E1.43840
G1 X28.953 Y12.314 E1.45451
G1 X121.047 Y12.314 E3.28678
G1 X121.795 Y12.624 E3.30290
G1 X137.376 Y28.205 E3.74129
G1 X137.686 Y28.953 E3.75741
G1 X137.686 Y121.047 E5.58968
G1 X137.376 Y121.795 E5.60579
G1 X121.795 Y137.376 E6.04419
G1 X121.047 Y137.686 E6.06030
G1 X28.953 Y137.686 E7.89258
G1 X28.205 Y137.376 E7.90869
G1 X12.624 Y121.795 E8.34709
G1 X12.314 Y121.047 E8.36320
G1 X12.314 Y28.953 E10.19547
G1 X12.356 Y28.852 E10.19766
G1 X12.993 Y29.088 F6000.000
G1 X13.200 Y28.589 F3000.000 E10.20840
G1 X28.589 Y13.200 E10.64143
G1 X29.088 Y12.993 E10.65217
G1 X120.912 Y12.993 E12.47907
G1 X121.411 Y13.200 E12.48982
G1 X136.800 Y28.589 E12.92284
G1 X137.007 Y29.088 E12.93358
G1 X137.007 Y120.912 E14.76049
G1 X136.800 Y121.411 E14.77123
G1 X121.411 Y136.800 E15.20426
G1 X120.912 Y137.007 E15.21500
G1 X29.088 Y137.007 E17.04190
G1 X28.589 Y136.800 E17.05264
G1 X13.200 Y121.411 E17.48567
G1 X12.993 Y120.912 E17.49641
G1 X12.993 Y29.788 E19.30939
G1 X13.671 Y29.223 F6000.000
G1 X13.775 Y28.974 F3000.000 E19.31476
G1 X28.974 Y13.775 E19.74241
G1 X29.223 Y13.671 E19.74779
G1 X120.777 Y13.671 E21.56932
G1 X121.026 Y13.775 E21.57469
G1 X136.225 Y28.974 E22.00235
G1 X136.329 Y29.223 E22.00772
G1 X136.329 Y120.777 E23.82925
G1 X136.225 Y121.026 E23.83462
G1 X121.026 Y136.225 E24.26228
G1 X120.777 Y136.329 E24.26765
G1 X29.223 Y136.329 E26.08918
G1 X28.974 Y136.225 E26.09455
G1 X13.775 Y121.026 E26.52221
G1 X13.671 Y120.777 E26.52758
G1 X13.671 Y29.923 E28.33519
G1 F600.000 E27.33519
G92 E0
G1 X20.337 Y38.711 F6000.000
G1 F600.000 E1.00000
G1 X20.484 Y38.612 F3000.000 E1.00353
G1 X20.637 Y38.521 E1.00707
G1 X20.796 Y38.440 E1.01062
G1 X20.959 Y38.370 E1.01415
G1 X21.126 Y38.309 E1.01768
G1 X21.296 Y38.260 E1.02121
G1 X21.469 Y38.221 E1.02474
G1 X21.840 Y38.162 E1.03221
G1 X21.840 Y38.066 E1.03412
G1 X22.091 Y38.123 E1.03925
G1 X22.797 Y38.011 E1.05347
G1 X22.797 Y38.282 E1.05886
G1 X23.454 Y38.518 E1.07275
G1 X23.454 Y38.567 E1.07373
G1 X23.699 Y38.692 E1.07920
G1 X23.699 Y38.729 E1.07993
G1 X23.937 Y38.938 E1.08622
G1 X24.062 Y39.063 E1.08975
G1 X24.180 Y39.197 E1.09329
G1 X24.289 Y39.337 E1.09682
G1 X24.367 Y39.452 E1.09960
G1 X24.367 Y39.452 E1.09960
G1 X24.388 Y39.484 E1.10035
G1 X24.479 Y39.637 E1.10390
G1 X24.614 Y39.903 E1.10982
G1 X24.652 Y39.903 E1.11058
G1 X24.779 Y40.470 E1.12215
G1 X24.807 Y40.645 E1.12569
G1 X24.823 Y40.822 E1.12922
G1 X24.829 Y41.000 E1.13276
G1 X24.823 Y41.178 E1.13629
G1 X24.807 Y41.355 E1.13983
G1 X24.779 Y41.530 E1.14336
G1 X24.652 Y42.097 E1.15493
G1 X24.614 Y42.097 E1.15569
G1 X24.479 Y42.363 E1.16161
G1 X24.388 Y42.516 E1.16516
G1 X24.367 Y42.548 E1.16592
G1 X24.367 Y42.548 E1.16592
G1 X24.289 Y42.663 E1.16869
G1 X24.180 Y42.803 E1.17222
G1 X24.062 Y42.937 E1.17576
G1 X23.937 Y43.062 E1.17929
G1 X23.803 Y43.180 E1.18283
G1 X23.663 Y43.289 E1.18637
G1 X23.516 Y43.388 E1.18989
G1 X23.363 Y43.479 E1.19344
G1 X23.204 Y43.560 E1.19698
G1 X23.041 Y43.630 E1.20051
G1 X22.874 Y43.691 E1.20404
G1 X22.703 Y43.740 E1.20759
G1 X22.530 Y43.779 E1.21112
G1 X22.354 Y43.807 E1.21466
G1 X22.178 Y43.823 E1.21819
G1 X22.000 Y43.829 E1.22173
G1 X21.822 Y43.823 E1.22526
G1 X21.646 Y43.807 E1.22880
G1 X21.470 Y43.779 E1.23233
G1 X21.297 Y43.740 E1.23587
G1 X21.126 Y43.691 E1.23941
G1 X20.959 Y43.630 E1.24294
G1 X20.796 Y43.560 E1.24647
G1 X20.637 Y43.479 E1.25002
G1 X20.484 Y43.388 E1.25356
G1 X20.337 Y43.289 E1.25709
G1 X20.197 Y43.180 E1.26062
G1 X20.063 Y43.062 E1.26416
G1 X19.938 Y42.937 E1.26769
G1 X19.820 Y42.803 E1.27123
G1 X19.711 Y42.663 E1.27477
G1 X19.612 Y42.516 E1.27830
G1 X19.521 Y42.363 E1.28184
G1 X19.369 Y42.065 E1.28849
G1 X19.306 Y42.065 E1.28975
G1 X19.193 Y41.354 E1.30407
G1 X19.177 Y41.178 E1.30760
G1 X19.171 Y41.000 E1.31113
G1 X19.177 Y40.822 E1.31467
G1 X19.193 Y40.646 E1.31820
G1 X19.221 Y40.470 E1.32174
G1 X19.260 Y40.297 E1.32527
G1 X19.309 Y40.126 E1.32882
G1 X19.370 Y39.959 E1.33235
G1 X19.440 Y39.796 E1.33588
G1 X19.521 Y39.637 E1.33942
G1 X19.612 Y39.484 E1.34297
G1 X19.711 Y39.337 E1.34649
G1 X19.820 Y39.197 E1.35003
G1 X19.827 Y39.188 E1.35025
G1 X20.343 Y39.629 F6000.000
G1 X20.433 Y39.528 F3000.000 E1.35294
G1 X20.528 Y39.433 E1.35562
G1 X20.629 Y39.343 E1.35831
G1 X20.736 Y39.260 E1.36100
G1 X20.848 Y39.185 E1.36368
G1 X20.964 Y39.116 E1.36637
G1 X21.085 Y39.054 E1.36906
G1 X21.209 Y39.001 E1.37175
G1 X21.336 Y38.955 E1.37444
G1 X21.465 Y38.917 E1.37712
G1 X21.597 Y38.888 E1.37981
G1 X22.119 Y38.805 E1.39032
G1 X22.119 Y38.824 E1.39070
G1 X22.519 Y38.914 E1.39885
G1 X22.519 Y38.914 E1.39885
G1 X22.535 Y38.917 E1.39918
G1 X22.664 Y38.955 E1.40186
G1 X22.776 Y38.995 E1.40422
G1 X22.776 Y38.995 E1.40422
G1 X22.791 Y39.001 E1.40454
G1 X22.915 Y39.054 E1.40724
G1 X23.021 Y39.108 E1.40959
G1 X23.021 Y39.108 E1.40959
G1 X23.036 Y39.116 E1.40993
G1 X23.152 Y39.185 E1.41262
G1 X23.264 Y39.261 E1.41530
G1 X23.371 Y39.343 E1.41799
G1 X23.472 Y39.433 E1.42068
G1 X23.567 Y39.528 E1.42336
G1 X23.657 Y39.629 E1.42605
G1 X23.739 Y39.736 E1.42874
G1 X23.815 Y39.848 E1.43142
G1 X23.884 Y39.964 E1.43412
G1 X23.946 Y40.085 E1.43680
G1 X23.999 Y40.209 E1.43949
G1 X24.045 Y40.336 E1.44218
G1 X24.083 Y40.465 E1.44487
G1 X24.108 Y40.581 E1.44723
G1 X24.108 Y40.581 E1.44723
G1 X24.112 Y40.597 E1.44755
G1 X24.133 Y40.731 E1.45024
G1 X24.146 Y40.865 E1.45293
G1 X24.150 Y41.000 E1.45561
G1 X24.146 Y41.135 E1.45830
G1 X24.133 Y41.269 E1.46099
G1 X24.112 Y41.403 E1.46368
G1 X24.108 Y41.419 E1.46400
G1 X24.108 Y41.419 E1.46400
G1 X24.083 Y41.535 E1.46636
G1 X24.045 Y41.664 E1.46905
G1 X23.999 Y41.791 E1.47174
G1 X23.946 Y41.915 E1.47442
G1 X23.884 Y42.036 E1.47711
G1 X23.815 Y42.152 E1.47981
G1 X23.739 Y42.264 E1.48249
G1 X23.657 Y42.371 E1.48518
G1 X23.567 Y42.472 E1.48787
G1 X23.472 Y42.567 E1.49055
G1 X23.371 Y42.657 E1.49324
G1 X23.264 Y42.739 E1.49593
G1 X23.152 Y42.815 E1.49861
G1 X23.036 Y42.884 E1.50130
G1 X22.915 Y42.946 E1.50399
G1 X22.791 Y42.999 E1.50668
G1 X22.664 Y43.045 E1.50936
G1 X22.535 Y43.083 E1.51205
G1 X22.403 Y43.112 E1.51474
G1 X22.269 Y43.133 E1.51743
G1 X22.135 Y43.146 E1.52011
G1 X22.000 Y43.150 E1.52280
G1 X21.865 Y43.146 E1.52549
G1 X21.731 Y43.133 E1.52818
G1 X21.597 Y43.112 E1.53086
G1 X21.465 Y43.083 E1.53355
G1 X21.336 Y43.045 E1.53624
G1 X21.209 Y42.999 E1.53892
G1 X21.085 Y42.946 E1.54161
G1 X20.964 Y42.884 E1.54430
G1 X20.848 Y42.815 E1.54699
G1 X20.736 Y42.740 E1.54968
G1 X20.629 Y42.657 E1.55236
G1 X20.528 Y42.567 E1.55505
G1 X20.433 Y42.472 E1.55774
G1 X20.343 Y42.371 E1.56043
G1 X20.260 Y42.264 E1.56311
G1 X20.185 Y42.152 E1.56580
G1 X20.116 Y42.036 E1.56849
G1 X20.054 Y41.915 E1.57118
G1 X20.001 Y41.791 E1.57386
G1 X19.955 Y41.664 E1.57655
G1 X19.917 Y41.535 E1.57924
G1 X19.888 Y41.403 E1.58193
G1 X19.885 Y41.386 E1.58226
G1 X19.885 Y41.386 E1.58226
G1 X19.867 Y41.269 E1.58461
G1 X19.854 Y41.135 E1.58730
G1 X19.850 Y41.000 E1.58999
G1 X19.854 Y40.865 E1.59268
G1 X19.867 Y40.731 E1.59536
G1 X19.888 Y40.597 E1.59805
G1 X19.917 Y40.465 E1.60074
G1 X19.955 Y40.336 E1.60343
G1 X19.992 Y40.232 E1.60562
G1 F600.000 E0.60562
G92 E0
G1 X38.692 Y23.699 F6000.000
G1 F600.000 E1.00000
G1 X38.440 Y23.204 F3000.000 E1.01106
G1 X38.369 Y23.041 E1.01460
G1 X38.309 Y22.874 E1.01812
G1 X38.260 Y22.703 E1.02166
G1 X38.221 Y22.530 E1.02519
G1 X38.193 Y22.354 E1.02873
G1 X38.177 Y22.178 E1.03226
G1 X38.171 Y22.000 E1.03580
G1 X38.177 Y21.822 E1.03934
G1 X38.193 Y21.646 E1.04287
G1 X38.306 Y20.935 E1.05718
G1 X38.369 Y20.935 E1.05844
G1 X38.692 Y20.301 E1.07261
G1 X38.729 Y20.301 E1.07333
G1 X38.938 Y20.063 E1.07963
G1 X39.063 Y19.938 E1.08316
G1 X39.197 Y19.820 E1.08670
G1 X39.337 Y19.711 E1.09023
G1 X39.484 Y19.612 E1.09376
G1 X39.637 Y19.521 E1.09731
G1 X39.796 Y19.440 E1.10085
G1 X39.959 Y19.370 E1.10438
G1 X40.126 Y19.309 E1.10792
G1 X40.297 Y19.260 E1.11145
G1 X40.470 Y19.221 E1.11498
G1 X41.393 Y19.075 E1.13357
G1 X41.393 Y19.190 E1.13587
G1 X42.197 Y19.370 E1.15227
G1 X42.197 Y19.423 E1.15331
G1 X42.484 Y19.592 E1.15993
G1 X42.484 Y19.592 E1.15993
G1 X42.516 Y19.612 E1.16069
G1 X42.663 Y19.711 E1.16421
G1 X42.803 Y19.820 E1.16775
G1 X42.937 Y19.938 E1.17129
G1 X43.062 Y20.063 E1.17482
G1 X43.180 Y20.197 E1.17836
G1 X43.289 Y20.337 E1.18190
G1 X43.388 Y20.484 E1.18542
G1 X43.479 Y20.637 E1.18897
G1 X43.560 Y20.796 E1.19251
G1 X43.630 Y20.959 E1.19605
G1 X43.718 Y21.203 E1.20120
G1 X43.989 Y21.203 E1.20659
G1 X43.863 Y22.000 E1.22266
G1 X43.989 Y22.797 E1.23872
G1 X43.718 Y22.797 E1.24411
G1 X43.630 Y23.041 E1.24927
G1 X43.560 Y23.204 E1.25280
G1 X43.479 Y23.363 E1.25634
G1 X43.388 Y23.516 E1.25989
G1 X43.289 Y23.663 E1.26341
G1 X43.180 Y23.803 E1.26695
G1 X43.062 Y23.937 E1.27049
G1 X42.937 Y24.062 E1.27402
G1 X42.803 Y24.180 E1.27756
G1 X42.663 Y24.289 E1.28110
G1 X42.516 Y24.388 E1.28462
G1 X42.484 Y24.408 E1.28538
G1 X42.484 Y24.408 E1.28538
G1 X42.363 Y24.479 E1.28817
G1 X42.065 Y24.631 E1.29482
G1 X42.065 Y24.694 E1.29608
G1 X41.354 Y24.807 E1.31039
G1 X41.178 Y24.823 E1.31393
G1 X41.000 Y24.829 E1.31746
G1 X40.822 Y24.823 E1.32100
G1 X40.645 Y24.807 E1.32453
G1 X40.470 Y24.779 E1.32806
G1 X39.903 Y24.652 E1.33964
G1 X39.903 Y24.614 E1.34040
G1 X39.637 Y24.479 E1.34632
G1 X39.484 Y24.388 E1.34986
G1 X39.337 Y24.289 E1.35339
G1 X39.197 Y24.180 E1.35693
G1 X39.191 Y24.174 E1.35709
G1 X39.629 Y23.657 F6000.000
G1 X39.528 Y23.567 F3000.000 E1.35978
G1 X39.433 Y23.472 E1.36246
G1 X39.343 Y23.371 E1.36515
G1 X39.261 Y23.264 E1.36784
G1 X39.185 Y23.152 E1.37052
G1 X39.116 Y23.036 E1.37321
G1 X39.108 Y23.021 E1.37355
G1 X39.108 Y23.021 E1.37355
G1 X39.054 Y22.915 E1.37591
G1 X39.001 Y22.791 E1.37860
G1 X38.955 Y22.664 E1.38128
G1 X38.917 Y22.535 E1.38397
G1 X38.888 Y22.403 E1.38665
G1 X38.867 Y22.269 E1.38934
G1 X38.854 Y22.135 E1.39203
G1 X38.850 Y22.000 E1.39471
G1 X38.854 Y21.865 E1.39740
G1 X38.867 Y21.731 E1.40009
G1 X38.885 Y21.613 E1.40245
G1 X38.885 Y21.613 E1.40245
G1 X38.888 Y21.597 E1.40278
G1 X38.917 Y21.465 E1.40546
G1 X38.955 Y21.336 E1.40815
G1 X39.001 Y21.209 E1.41083
G1 X39.054 Y21.085 E1.41352
G1 X39.108 Y20.979 E1.41588
G1 X39.108 Y20.979 E1.41588
G1 X39.116 Y20.964 E1.41622
G1 X39.185 Y20.848 E1.41891
G1 X39.261 Y20.736 E1.42159
G1 X39.343 Y20.629 E1.42428
G1 X39.433 Y20.528 E1.42697
G1 X39.528 Y20.433 E1.42965
G1 X39.629 Y20.343 E1.43234
G1 X39.736 Y20.261 E1.43503
G1 X39.848 Y20.185 E1.43771
G1 X39.964 Y20.116 E1.44040
G1 X40.085 Y20.054 E1.44309
G1 X40.209 Y20.001 E1.44578
G1 X40.336 Y19.955 E1.44847
G1 X40.465 Y19.917 E1.45115
G1 X40.597 Y19.888 E1.45384
G1 X40.714 Y19.869 E1.45620
G1 X40.714 Y19.869 E1.45620
G1 X40.731 Y19.867 E1.45653
G1 X40.865 Y19.854 E1.45921
G1 X41.000 Y19.850 E1.46190
G1 X41.135 Y19.854 E1.46459
G1 X41.269 Y19.867 E1.46728
G1 X41.403 Y19.888 E1.46997
G1 X41.519 Y19.914 E1.47232
G1 X41.519 Y19.914 E1.47232
G1 X41.535 Y19.917 E1.47265
G1 X41.664 Y19.955 E1.47534
G1 X41.791 Y20.001 E1.47802
G1 X41.915 Y20.054 E1.48071
G1 X42.036 Y20.116 E1.48340
G1 X42.152 Y20.185 E1.48609
G1 X42.264 Y20.260 E1.48877
G1 X42.371 Y20.343 E1.49146
G1 X42.472 Y20.433 E1.49415
G1 X42.567 Y20.528 E1.49684
G1 X42.657 Y20.629 E1.49953
G1 X42.740 Y20.736 E1.50221
G1 X42.815 Y20.848 E1.50490
G1 X42.884 Y20.964 E1.50759
G1 X42.946 Y21.085 E1.51028
G1 X42.999 Y21.209 E1.51297
G1 X43.045 Y21.336 E1.51565
G1 X43.083 Y21.465 E1.51834
G1 X43.112 Y21.597 E1.52103
G1 X43.158 Y21.881 E1.52675
G1 X43.195 Y21.881 E1.52749
G1 X43.176 Y22.000 E1.52988
G1 X43.195 Y22.119 E1.53228
G1 X43.158 Y22.119 E1.53302
G1 X43.112 Y22.403 E1.53874
G1 X43.083 Y22.535 E1.54143
G1 X43.045 Y22.664 E1.54411
G1 X42.999 Y22.791 E1.54680
G1 X42.946 Y22.915 E1.54949
G1 X42.884 Y23.036 E1.55218
G1 X42.815 Y23.152 E1.55487
G1 X42.740 Y23.264 E1.55755
G1 X42.657 Y23.371 E1.56024
G1 X42.567 Y23.472 E1.56293
G1 X42.472 Y23.567 E1.56561
G1 X42.371 Y23.657 E1.56830
G1 X42.264 Y23.740 E1.57099
G1 X42.152 Y23.815 E1.57367
G1 X42.036 Y23.884 E1.57637
G1 X41.915 Y23.946 E1.57906
G1 X41.791 Y23.999 E1.58174
G1 X41.664 Y24.045 E1.58443
G1 X41.535 Y24.083 E1.58712
G1 X41.403 Y24.112 E1.58980
G1 X41.386 Y24.115 E1.59013
G1 X41.386 Y24.115 E1.59013
G1 X41.269 Y24.133 E1.59249
G1 X41.135 Y24.146 E1.59518
G1 X41.000 Y24.150 E1.59787
G1 X40.865 Y24.146 E1.60055
G1 X40.731 Y24.133 E1.60324
G1 X40.597 Y24.112 E1.60593
G1 X40.581 Y24.108 E1.60625
G1 X40.581 Y24.108 E1.60625
G1 X40.465 Y24.083 E1.60861
G1 X40.336 Y24.045 E1.61130
G1 X40.232 Y24.007 E1.61350
G1 F600.000 E0.61350
G92 E0
G1 X106.171 Y22.000 F6000.000
G1 F600.000 E1.00000
G1 X106.177 Y21.823 F3000.000 E1.00353
G1 X106.193 Y21.646 E1.00706
G1 X106.215 Y21.507 E1.00986
G1 X106.215 Y21.507 E1.00986
G1 X106.221 Y21.470 E1.01061
G1 X106.260 Y21.297 E1.01413
G1 X106.309 Y21.126 E1.01768
G1 X106.369 Y20.959 E1.02120
G1 X106.440 Y20.796 E1.02474
G1 X106.521 Y20.637 E1.02830
G1 X106.612 Y20.484 E1.03183
G1 X106.711 Y20.338 E1.03535
G1 X106.820 Y20.196 E1.03890
G1 X106.938 Y20.063 E1.04244
G1 X107.063 Y19.938 E1.04596
G1 X107.197 Y19.820 E1.04950
G1 X107.337 Y19.711 E1.05304
G1 X107.484 Y19.612 E1.05657
G1 X107.637 Y19.521 E1.06011
G1 X107.966 Y19.354 E1.06745
G1 X107.966 Y19.204 E1.07043
G1 X108.821 Y19.177 E1.08746
G1 X108.822 Y19.177 E1.08746
G1 X109.000 Y19.171 E1.09101
G1 X109.178 Y19.177 E1.09455
G1 X109.931 Y19.248 E1.10961
G1 X109.931 Y19.285 E1.11035
G1 X110.360 Y19.353 E1.11899
G1 X110.360 Y19.505 E1.12203
G1 X110.663 Y19.711 E1.12932
G1 X110.803 Y19.820 E1.13284
G1 X110.937 Y19.938 E1.13639
G1 X111.062 Y20.063 E1.13992
G1 X111.180 Y20.197 E1.14346
G1 X111.289 Y20.337 E1.14699
G1 X111.389 Y20.484 E1.15052
