; generated by Slic3r 0.9.3 on 2012-10-07 at 22:38:09

; layer_height = 0.2
; perimeters = 4
; solid_layers = 5
; fill_density = 0.2
; perimeter_speed = 90
; infill_speed = 90
; travel_speed = 100
; scale = 1
; nozzle_diameter = 0.5
; filament_diameter = 2.9
; extrusion_multiplier = 1
; single wall width = 0.70mm

;G28 ; home all axes
G90 ; use absolute coordinates
G21 ; set units to millimeters
G92 E0
M82 ; use absolute distances for extrusion
G1 F600.000 E-1.00000
G92 E0
G1 Z0.200 F6000.000
G1 X9.630 Y24.630
G1 F600.000 E1.00000
G1 X25.030 Y9.250 F3000.000 E1.43303
G1 X25.470 Y8.910 E1.44409
G1 X25.930 Y8.610 E1.45502
G1 X26.670 Y8.230 E1.47157
G1 X27.180 Y8.030 E1.48247
G1 X27.980 Y7.810 E1.49897
G1 X28.520 Y7.720 E1.50987
G1 X28.800 Y7.690 E1.51547
G1 X29.350 Y7.670 E1.52642
G1 X121.190 Y7.690 E3.35365
G1 X121.740 Y7.760 E3.36468
G1 X122.010 Y7.810 E3.37015
G1 X122.810 Y8.030 E3.38665
G1 X123.320 Y8.230 E3.39755
G1 X124.060 Y8.610 E3.41410
G1 X124.520 Y8.910 E3.42503
G1 X124.960 Y9.250 E3.43609
G1 X140.740 Y25.030 E3.88010
G1 X141.080 Y25.470 E3.89116
G1 X141.380 Y25.930 E3.90208
G1 X141.760 Y26.670 E3.91864
G1 X141.960 Y27.180 E3.92953
G1 X142.180 Y27.980 E3.94604
G1 X142.270 Y28.520 E3.95693
G1 X142.300 Y28.800 E3.96254
G1 X142.300 Y121.190 E5.80071
G1 X142.230 Y121.740 E5.81174
G1 X142.180 Y122.010 E5.81721
G1 X141.960 Y122.810 E5.83371
G1 X141.760 Y123.320 E5.84461
G1 X141.380 Y124.060 E5.86116
G1 X141.080 Y124.520 E5.87209
G1 X140.740 Y124.960 E5.88315
G1 X124.960 Y140.740 E6.32716
G1 X124.520 Y141.080 E6.33822
G1 X124.060 Y141.380 E6.34915
G1 X123.320 Y141.760 E6.36570
G1 X122.810 Y141.960 E6.37659
G1 X122.010 Y142.180 E6.39310
G1 X121.470 Y142.270 E6.40399
G1 X121.190 Y142.300 E6.40960
G1 X120.640 Y142.320 E6.42055
G1 X28.800 Y142.300 E8.24778
G1 X28.250 Y142.230 E8.25881
G1 X27.980 Y142.180 E8.26427
G1 X27.180 Y141.960 E8.28078
G1 X26.670 Y141.760 E8.29168
G1 X25.930 Y141.380 E8.30823
G1 X25.470 Y141.080 E8.31916
G1 X25.030 Y140.740 E8.33022
G1 X9.250 Y124.960 E8.77422
G1 X8.910 Y124.520 E8.78529
G1 X8.610 Y124.060 E8.79621
G1 X8.230 Y123.320 E8.81276
G1 X8.030 Y122.810 E8.82366
G1 X7.810 Y122.010 E8.84017
G1 X7.720 Y121.470 E8.85106
G1 X7.690 Y121.190 E8.85666
G1 X7.690 Y28.800 E10.69484
G1 X7.760 Y28.250 E10.70587
G1 X7.810 Y27.980 E10.71133
G1 X8.030 Y27.180 E10.72784
G1 X8.230 Y26.670 E10.73874
G1 X8.610 Y25.930 E10.75529
G1 X8.910 Y25.470 E10.76622
G1 X9.159 Y25.147 E10.77433
G1 F600.000 E9.77433
G92 E0
G1 X13.775 Y28.974 F6000.000
G1 F600.000 E1.00000
G1 X28.974 Y13.775 F3000.000 E1.42766
G1 X29.223 Y13.671 E1.43303
G1 X120.777 Y13.671 E3.25456
G1 X121.026 Y13.775 E3.25993
G1 X136.225 Y28.974 E3.68759
G1 X136.329 Y29.223 E3.69296
G1 X136.329 Y120.777 E5.51449
G1 X136.225 Y121.026 E5.51986
G1 X121.026 Y136.225 E5.94752
G1 X120.777 Y136.329 E5.95289
G1 X29.223 Y136.329 E7.77442
G1 X28.974 Y136.225 E7.77979
G1 X13.775 Y121.026 E8.20745
G1 X13.671 Y120.777 E8.21282
G1 X13.671 Y29.653 E10.02580
G1 F600.000 E9.02580
G92 E0
G1 X20.483 Y36.371 F6000.000
G1 F600.000 E1.00000
G1 X22.135 Y36.742 F3000.000 E1.03369
G1 X24.154 Y36.422 E1.07436
G1 X24.154 Y37.328 E1.09239
G1 X24.811 Y37.564 E1.10629
G1 X24.811 Y37.735 E1.10969
G1 X25.057 Y37.860 E1.11516
G1 X25.057 Y38.053 E1.11900
G1 X25.391 Y38.545 E1.13085
G1 X25.740 Y38.545 E1.13779
G1 X26.113 Y40.216 E1.17184
G1 X26.154 Y40.475 E1.17707
G1 X26.178 Y40.737 E1.18230
G1 X26.187 Y41.000 E1.18753
G1 X26.178 Y41.263 E1.19276
G1 X26.154 Y41.525 E1.19799
G1 X26.113 Y41.784 E1.20322
G1 X25.740 Y43.455 E1.23727
G1 X25.391 Y43.455 E1.24421
G1 X25.085 Y43.905 E1.25505
G1 X25.013 Y43.905 E1.25648
G1 X24.866 Y44.052 E1.26061
G1 X24.669 Y44.226 E1.26585
G1 X24.461 Y44.387 E1.27108
G1 X24.244 Y44.534 E1.27630
G1 X24.017 Y44.669 E1.28155
G1 X23.782 Y44.788 E1.28680
G1 X23.541 Y44.893 E1.29203
G1 X23.294 Y44.982 E1.29725
G1 X23.041 Y45.055 E1.30249
G1 X22.784 Y45.113 E1.30772
G1 X22.524 Y45.154 E1.31296
G1 X22.263 Y45.178 E1.31818
G1 X22.000 Y45.187 E1.32342
G1 X21.737 Y45.178 E1.32865
G1 X21.476 Y45.154 E1.33388
G1 X21.216 Y45.113 E1.33911
G1 X20.959 Y45.055 E1.34435
G1 X20.706 Y44.982 E1.34959
G1 X20.459 Y44.893 E1.35480
G1 X20.218 Y44.789 E1.36003
G1 X19.776 Y44.564 E1.36990
G1 X19.776 Y44.548 E1.37021
G1 X19.539 Y44.387 E1.37591
G1 X19.331 Y44.226 E1.38114
G1 X19.134 Y44.052 E1.38638
G1 X18.948 Y43.866 E1.39160
G1 X18.774 Y43.669 E1.39684
G1 X18.583 Y43.422 E1.40305
G1 X18.147 Y43.422 E1.41172
G1 X17.846 Y41.524 E1.44995
G1 X17.822 Y41.263 E1.45518
G1 X17.813 Y41.000 E1.46041
G1 X17.822 Y40.737 E1.46565
G1 X17.846 Y40.476 E1.47087
G1 X17.887 Y40.216 E1.47610
G1 X17.945 Y39.959 E1.48133
G1 X18.018 Y39.706 E1.48658
G1 X18.107 Y39.459 E1.49180
G1 X18.211 Y39.218 E1.49703
G1 X18.331 Y38.983 E1.50228
G1 X18.465 Y38.756 E1.50753
G1 X18.613 Y38.539 E1.51273
G1 X18.774 Y38.331 E1.51797
G1 X18.948 Y38.134 E1.52321
G1 X19.134 Y37.948 E1.52844
G1 X19.331 Y37.774 E1.53367
G1 X19.539 Y37.613 E1.53891
G1 X19.756 Y37.465 E1.54412
G1 X19.976 Y37.335 E1.54922
G1 X19.976 Y37.316 E1.54960
G1 X20.483 Y37.097 E1.56058
G1 X20.483 Y37.071 E1.56110
G1 X21.162 Y37.219 F6000.000
G1 X22.113 Y37.432 F3000.000 E1.58050
G1 X23.476 Y37.216 E1.60795
G1 X23.476 Y37.805 E1.61966
G1 X24.133 Y38.041 E1.63356
G1 X24.133 Y38.151 E1.63574
G1 X24.378 Y38.276 E1.64122
G1 X24.378 Y38.420 E1.64407
G1 X24.557 Y38.598 E1.64911
G1 X24.712 Y38.774 E1.65376
G1 X24.726 Y38.774 E1.65405
G1 X25.032 Y39.224 E1.66488
G1 X25.196 Y39.224 E1.66814
G1 X25.446 Y40.343 E1.69096
G1 X25.480 Y40.560 E1.69533
G1 X25.501 Y40.780 E1.69972
G1 X25.508 Y41.000 E1.70410
G1 X25.501 Y41.220 E1.70849
G1 X25.480 Y41.440 E1.71287
G1 X25.446 Y41.657 E1.71724
G1 X25.196 Y42.776 E1.74006
G1 X25.032 Y42.776 E1.74332
G1 X24.726 Y43.226 E1.75415
G1 X24.712 Y43.226 E1.75444
G1 X24.557 Y43.401 E1.75909
G1 X24.402 Y43.557 E1.76347
G1 X24.236 Y43.703 E1.76786
G1 X24.062 Y43.838 E1.77224
G1 X23.880 Y43.961 E1.77661
G1 X23.690 Y44.074 E1.78101
G1 X23.493 Y44.174 E1.78540
G1 X23.291 Y44.262 E1.78979
G1 X23.084 Y44.336 E1.79416
G1 X22.872 Y44.398 E1.79855
G1 X22.657 Y44.446 E1.80294
G1 X22.439 Y44.480 E1.80732
G1 X22.220 Y44.501 E1.81170
G1 X22.000 Y44.508 E1.81609
G1 X21.780 Y44.501 E1.82047
G1 X21.561 Y44.480 E1.82485
G1 X21.343 Y44.446 E1.82924
G1 X21.128 Y44.398 E1.83362
G1 X20.916 Y44.336 E1.83801
G1 X20.709 Y44.262 E1.84239
G1 X20.507 Y44.174 E1.84677
G1 X20.454 Y44.148 E1.84794
G1 X20.454 Y44.148 E1.84794
G1 X20.310 Y44.074 E1.85116
G1 X20.120 Y43.961 E1.85556
G1 X19.938 Y43.838 E1.85993
G1 X19.764 Y43.703 E1.86432
G1 X19.599 Y43.557 E1.86871
G1 X19.443 Y43.401 E1.87308
G1 X19.297 Y43.236 E1.87747
G1 X19.162 Y43.062 E1.88186
G1 X18.946 Y42.744 E1.88952
G1 X18.726 Y42.744 E1.89388
G1 X18.520 Y41.439 E1.92015
G1 X18.499 Y41.220 E1.92453
G1 X18.492 Y41.000 E1.92891
G1 X18.499 Y40.780 E1.93330
G1 X18.520 Y40.561 E1.93767
G1 X18.554 Y40.343 E1.94206
G1 X18.602 Y40.128 E1.94644
G1 X18.664 Y39.916 E1.95084
G1 X18.738 Y39.709 E1.95521
G1 X18.826 Y39.507 E1.95959
G1 X18.926 Y39.310 E1.96399
G1 X19.038 Y39.120 E1.96838
G1 X19.162 Y38.938 E1.97275
G1 X19.297 Y38.764 E1.97714
G1 X19.443 Y38.599 E1.98153
G1 X19.599 Y38.443 E1.98591
G1 X19.764 Y38.297 E1.99029
G1 X19.938 Y38.162 E1.99468
G1 X20.120 Y38.039 E1.99905
G1 X20.310 Y37.926 E2.00345
G1 X20.507 Y37.826 E2.00785
G1 X20.655 Y37.762 E2.01105
G1 X20.655 Y37.762 E2.01105
G1 X20.708 Y37.739 E2.01221
G1 X20.850 Y37.688 E2.01520
G1 X21.090 Y38.322 F6000.000
G1 X21.126 Y38.309 F3000.000 E2.01596
G1 X21.296 Y38.260 E2.01949
G1 X21.469 Y38.221 E2.02302
G1 X21.840 Y38.162 E2.03049
G1 X21.840 Y38.066 E2.03240
G1 X22.091 Y38.123 E2.03753
G1 X22.797 Y38.011 E2.05175
G1 X22.797 Y38.282 E2.05714
G1 X23.454 Y38.518 E2.07103
G1 X23.454 Y38.567 E2.07201
G1 X23.699 Y38.692 E2.07748
G1 X23.699 Y38.729 E2.07821
G1 X23.937 Y38.938 E2.08450
G1 X24.062 Y39.063 E2.08803
G1 X24.180 Y39.197 E2.09157
G1 X24.289 Y39.337 E2.09510
G1 X24.367 Y39.452 E2.09788
G1 X24.367 Y39.452 E2.09788
G1 X24.388 Y39.484 E2.09863
G1 X24.479 Y39.637 E2.10218
G1 X24.614 Y39.903 E2.10810
G1 X24.652 Y39.903 E2.10886
G1 X24.779 Y40.470 E2.12044
G1 X24.807 Y40.645 E2.12397
G1 X24.823 Y40.822 E2.12750
G1 X24.829 Y41.000 E2.13104
G1 X24.823 Y41.178 E2.13457
G1 X24.807 Y41.355 E2.13811
G1 X24.779 Y41.530 E2.14164
G1 X24.652 Y42.097 E2.15321
G1 X24.614 Y42.097 E2.15397
G1 X24.479 Y42.363 E2.15990
G1 X24.388 Y42.516 E2.16344
G1 X24.367 Y42.548 E2.16420
G1 X24.367 Y42.548 E2.16420
G1 X24.289 Y42.663 E2.16697
G1 X24.180 Y42.803 E2.17051
G1 X24.062 Y42.937 E2.17404
G1 X23.937 Y43.062 E2.17757
G1 X23.803 Y43.180 E2.18111
G1 X23.663 Y43.289 E2.18465
G1 X23.516 Y43.388 E2.18818
G1 X23.363 Y43.479 E2.19172
G1 X23.204 Y43.560 E2.19526
G1 X23.041 Y43.630 E2.19880
G1 X22.874 Y43.691 E2.20233
G1 X22.703 Y43.740 E2.20587
G1 X22.530 Y43.779 E2.20940
G1 X22.354 Y43.807 E2.21294
G1 X22.178 Y43.823 E2.21647
G1 X22.000 Y43.829 E2.22001
G1 X21.822 Y43.823 E2.22355
G1 X21.646 Y43.807 E2.22708
G1 X21.470 Y43.779 E2.23061
G1 X21.297 Y43.740 E2.23415
G1 X21.126 Y43.691 E2.23769
G1 X20.959 Y43.630 E2.24122
G1 X20.796 Y43.560 E2.24475
G1 X20.637 Y43.479 E2.24830
G1 X20.484 Y43.388 E2.25184
G1 X20.337 Y43.289 E2.25537
G1 X20.197 Y43.180 E2.25890
G1 X20.063 Y43.062 E2.26244
G1 X19.938 Y42.937 E2.26597
G1 X19.820 Y42.803 E2.26951
G1 X19.711 Y42.663 E2.27305
G1 X19.612 Y42.516 E2.27658
G1 X19.521 Y42.363 E2.28012
G1 X19.369 Y42.065 E2.28677
G1 X19.306 Y42.065 E2.28803
G1 X19.193 Y41.354 E2.30235
G1 X19.177 Y41.178 E2.30588
G1 X19.171 Y41.000 E2.30942
G1 X19.177 Y40.822 E2.31295
G1 X19.193 Y40.646 E2.31648
G1 X19.221 Y40.470 E2.32002
G1 X19.260 Y40.297 E2.32355
G1 X19.309 Y40.126 E2.32710
G1 X19.370 Y39.959 E2.33063
G1 X19.440 Y39.796 E2.33416
G1 X19.521 Y39.637 E2.33770
G1 X19.612 Y39.484 E2.34125
G1 X19.711 Y39.337 E2.34477
G1 X19.820 Y39.197 E2.34831
G1 X19.938 Y39.063 E2.35185
G1 X20.063 Y38.938 E2.35538
G1 X20.197 Y38.820 E2.35892
G1 X20.337 Y38.711 E2.36246
G1 X20.462 Y38.627 E2.36545
G1 X20.848 Y39.185 F6000.000
G1 X20.964 Y39.116 F3000.000 E2.36814
G1 X21.085 Y39.054 E2.37083
G1 X21.209 Y39.001 E2.37352
G1 X21.336 Y38.955 E2.37621
G1 X21.465 Y38.917 E2.37889
G1 X21.597 Y38.888 E2.38158
G1 X22.119 Y38.805 E2.39209
G1 X22.119 Y38.824 E2.39247
G1 X22.519 Y38.914 E2.40062
G1 X22.519 Y38.914 E2.40062
G1 X22.535 Y38.917 E2.40095
G1 X22.664 Y38.955 E2.40363
G1 X22.776 Y38.995 E2.40599
G1 X22.776 Y38.995 E2.40599
G1 X22.791 Y39.001 E2.40631
G1 X22.915 Y39.054 E2.40901
G1 X23.021 Y39.108 E2.41136
G1 X23.021 Y39.108 E2.41136
G1 X23.036 Y39.116 E2.41170
G1 X23.152 Y39.185 E2.41439
G1 X23.264 Y39.261 E2.41707
G1 X23.371 Y39.343 E2.41976
G1 X23.472 Y39.433 E2.42245
G1 X23.567 Y39.528 E2.42513
G1 X23.657 Y39.629 E2.42782
G1 X23.739 Y39.736 E2.43051
G1 X23.815 Y39.848 E2.43319
G1 X23.884 Y39.964 E2.43588
G1 X23.946 Y40.085 E2.43857
G1 X23.999 Y40.209 E2.44126
G1 X24.045 Y40.336 E2.44395
G1 X24.083 Y40.465 E2.44663
G1 X24.108 Y40.581 E2.44899
G1 X24.108 Y40.581 E2.44899
G1 X24.112 Y40.597 E2.44932
G1 X24.133 Y40.731 E2.45201
G1 X24.146 Y40.865 E2.45470
G1 X24.150 Y41.000 E2.45738
G1 X24.146 Y41.135 E2.46007
G1 X24.133 Y41.269 E2.46276
G1 X24.112 Y41.403 E2.46544
G1 X24.108 Y41.419 E2.46577
G1 X24.108 Y41.419 E2.46577
G1 X24.083 Y41.535 E2.46813
G1 X24.045 Y41.664 E2.47082
G1 X23.999 Y41.791 E2.47351
G1 X23.946 Y41.915 E2.47619
G1 X23.884 Y42.036 E2.47888
G1 X23.815 Y42.152 E2.48157
G1 X23.739 Y42.264 E2.48426
G1 X23.657 Y42.371 E2.48695
G1 X23.567 Y42.472 E2.48963
G1 X23.472 Y42.567 E2.49232
G1 X23.371 Y42.657 E2.49501
G1 X23.264 Y42.739 E2.49770
G1 X23.152 Y42.815 E2.50038
G1 X23.036 Y42.884 E2.50307
G1 X22.915 Y42.946 E2.50576
G1 X22.791 Y42.999 E2.50845
G1 X22.664 Y43.045 E2.51113
G1 X22.535 Y43.083 E2.51382
G1 X22.403 Y43.112 E2.51651
G1 X22.269 Y43.133 E2.51920
G1 X22.135 Y43.146 E2.52188
G1 X22.000 Y43.150 E2.52457
G1 X21.865 Y43.146 E2.52726
G1 X21.731 Y43.133 E2.52994
G1 X21.597 Y43.112 E2.53263
G1 X21.465 Y43.083 E2.53532
G1 X21.336 Y43.045 E2.53801
G1 X21.209 Y42.999 E2.54069
G1 X21.085 Y42.946 E2.54338
G1 X20.964 Y42.884 E2.54607
G1 X20.848 Y42.815 E2.54876
G1 X20.736 Y42.740 E2.55144
G1 X20.629 Y42.657 E2.55413
G1 X20.528 Y42.567 E2.55682
G1 X20.433 Y42.472 E2.55951
G1 X20.343 Y42.371 E2.56219
G1 X20.260 Y42.264 E2.56488
G1 X20.185 Y42.152 E2.56757
G1 X20.116 Y42.036 E2.57026
G1 X20.054 Y41.915 E2.57295
G1 X20.001 Y41.791 E2.57563
G1 X19.955 Y41.664 E2.57832
G1 X19.917 Y41.535 E2.58101
G1 X19.888 Y41.403 E2.58370
G1 X19.885 Y41.386 E2.58403
G1 X19.885 Y41.386 E2.58403
G1 X19.867 Y41.269 E2.58638
G1 X19.854 Y41.135 E2.58907
G1 X19.850 Y41.000 E2.59176
G1 X19.854 Y40.865 E2.59444
G1 X19.867 Y40.731 E2.59713
G1 X19.888 Y40.597 E2.59982
G1 X19.917 Y40.465 E2.60250
G1 X19.955 Y40.336 E2.60520
G1 X20.001 Y40.209 E2.60788
G1 X20.054 Y40.085 E2.61057
G1 X20.116 Y39.964 E2.61326
G1 X20.185 Y39.848 E2.61595
G1 X20.260 Y39.736 E2.61863
G1 X20.328 Y39.649 E2.62083
G1 F600.000 E1.62083
G92 E0
G1 X37.860 Y25.057 F6000.000
G1 F600.000 E1.00000
G1 X37.211 Y23.782 F3000.000 E1.02846
G1 X37.107 Y23.540 E1.03369
G1 X37.018 Y23.294 E1.03890
G1 X36.945 Y23.041 E1.04414
G1 X36.887 Y22.784 E1.04938
G1 X36.846 Y22.524 E1.05461
G1 X36.822 Y22.263 E1.05984
G1 X36.813 Y22.000 E1.06507
G1 X36.822 Y21.737 E1.07030
G1 X36.846 Y21.476 E1.07553
G1 X37.147 Y19.578 E1.11376
G1 X37.537 Y19.578 E1.12152
G1 X37.860 Y18.943 E1.13568
G1 X38.139 Y18.943 E1.14124
G1 X38.331 Y18.774 E1.14633
G1 X38.539 Y18.613 E1.15156
G1 X38.689 Y18.511 E1.15518
G1 X38.689 Y18.511 E1.15518
G1 X38.756 Y18.465 E1.15678
G1 X38.983 Y18.331 E1.16204
G1 X39.218 Y18.211 E1.16728
G1 X39.459 Y18.107 E1.17250
G1 X39.707 Y18.018 E1.17774
G1 X39.959 Y17.945 E1.18297
G1 X40.215 Y17.888 E1.18818
G1 X42.750 Y17.486 E1.23925
G1 X42.750 Y18.103 E1.25154
G1 X43.554 Y18.284 E1.26794
G1 X43.554 Y18.673 E1.27568
G1 X43.866 Y18.948 E1.28396
G1 X44.052 Y19.134 E1.28918
G1 X44.226 Y19.331 E1.29442
G1 X44.387 Y19.539 E1.29966
G1 X44.596 Y19.846 E1.30703
G1 X45.578 Y19.846 E1.32658
G1 X45.237 Y22.000 E1.36998
G1 X45.578 Y24.154 E1.41338
G1 X44.596 Y24.154 E1.43293
G1 X44.387 Y24.461 E1.44031
G1 X44.226 Y24.669 E1.44554
G1 X44.052 Y24.866 E1.45078
G1 X43.866 Y25.052 E1.45600
G1 X43.669 Y25.226 E1.46124
G1 X43.422 Y25.417 E1.46745
G1 X43.422 Y25.853 E1.47612
G1 X42.444 Y26.008 E1.49582
G1 X41.988 Y26.278 E1.50638
G1 X41.716 Y26.124 E1.51260
G1 X41.524 Y26.154 E1.51646
G1 X41.263 Y26.178 E1.52168
G1 X41.000 Y26.187 E1.52692
G1 X40.737 Y26.178 E1.53215
G1 X40.475 Y26.154 E1.53738
G1 X40.216 Y26.113 E1.54260
G1 X38.545 Y25.740 E1.57666
G1 X38.545 Y25.392 E1.58359
G1 X38.461 Y25.327 E1.58571
G1 X38.938 Y24.838 F6000.000
G1 X38.764 Y24.703 F3000.000 E1.59009
G1 X38.598 Y24.557 E1.59448
G1 X38.420 Y24.378 E1.59951
G1 X38.276 Y24.378 E1.60237
G1 X37.826 Y23.493 E1.62213
G1 X37.738 Y23.290 E1.62652
G1 X37.664 Y23.084 E1.63088
G1 X37.602 Y22.872 E1.63527
G1 X37.554 Y22.657 E1.63965
G1 X37.520 Y22.439 E1.64404
G1 X37.499 Y22.220 E1.64842
G1 X37.492 Y22.000 E1.65280
G1 X37.499 Y21.780 E1.65719
G1 X37.520 Y21.561 E1.66157
G1 X37.726 Y20.256 E1.68784
G1 X37.953 Y20.256 E1.69235
G1 X38.276 Y19.622 E1.70652
G1 X38.420 Y19.622 E1.70937
G1 X38.598 Y19.443 E1.71440
G1 X38.764 Y19.297 E1.71879
G1 X38.938 Y19.162 E1.72318
G1 X39.120 Y19.038 E1.72755
G1 X39.310 Y18.926 E1.73195
G1 X39.507 Y18.826 E1.73634
G1 X39.709 Y18.738 E1.74072
G1 X39.916 Y18.664 E1.74511
G1 X40.128 Y18.602 E1.74949
G1 X40.342 Y18.554 E1.75386
G1 X42.071 Y18.280 E1.78869
G1 X42.071 Y18.560 E1.79424
G1 X42.308 Y18.700 E1.79973
G1 X42.876 Y18.827 E1.81129
G1 X42.876 Y19.035 E1.81544
G1 X43.062 Y19.162 E1.81992
G1 X43.236 Y19.297 E1.82431
G1 X43.402 Y19.443 E1.82870
G1 X43.557 Y19.599 E1.83307
G1 X43.703 Y19.764 E1.83746
G1 X43.838 Y19.938 E1.84185
G1 X43.961 Y20.120 E1.84621
G1 X44.074 Y20.310 E1.85061
G1 X44.183 Y20.524 E1.85539
G1 X44.784 Y20.524 E1.86735
G1 X44.550 Y22.000 E1.89708
G1 X44.784 Y23.476 E1.92681
G1 X44.183 Y23.476 E1.93876
G1 X44.074 Y23.690 E1.94354
G1 X43.961 Y23.880 E1.94794
G1 X43.838 Y24.062 E1.95231
G1 X43.703 Y24.236 E1.95669
G1 X43.557 Y24.401 E1.96108
