; generated by Slic3r 0.9.3 on 2012-10-06 at 17:10:13

; layer_height = 0.2
; perimeters = 1
; solid_layers = 5
; fill_density = 0.2
; perimeter_speed = 90
; infill_speed = 90
; travel_speed = 100
; scale = 1
; nozzle_diameter = 0.5
; filament_diameter = 2.9
; extrusion_multiplier = 1
; single wall width = 0.70mm

;G28 ; home all axes
G90 ; use absolute coordinates
G21 ; set units to millimeters
G92 E0
M82 ; use absolute distances for extrusion
G1 F600.000 E-1.00000
G92 E0
G1 Z0.200 F6000.000
G1 X53.130 Y68.130
G1 F600.000 E1.00000
G1 X68.530 Y52.750 F3000.000 E1.43303
G1 X68.970 Y52.410 E1.44409
G1 X69.430 Y52.110 E1.45502
G1 X70.170 Y51.730 E1.47157
G1 X70.680 Y51.530 E1.48247
G1 X71.480 Y51.310 E1.49897
G1 X72.020 Y51.220 E1.50987
G1 X72.300 Y51.190 E1.51547
G1 X72.850 Y51.170 E1.52642
G1 X92.680 Y51.190 E1.92095
G1 X93.480 Y51.310 E1.93705
G1 X94.000 Y51.440 E1.94771
G1 X94.510 Y51.610 E1.95841
G1 X95.000 Y51.820 E1.96902
G1 X95.480 Y52.070 E1.97978
G1 X95.930 Y52.350 E1.99033
G1 X96.570 Y52.850 E2.00649
G1 X96.770 Y53.030 E2.01184
G1 X96.960 Y53.220 E2.01719
G1 X97.480 Y53.840 E2.03329
G1 X97.640 Y54.060 E2.03870
G1 X97.920 Y54.510 E2.04924
G1 X98.280 Y55.230 E2.06526
G1 X98.550 Y55.990 E2.08131
G1 X98.680 Y56.510 E2.09197
G1 X98.770 Y57.040 E2.10267
G1 X98.800 Y57.310 E2.10807
G1 X98.800 Y77.690 E2.51355
G1 X98.730 Y78.240 E2.52458
G1 X98.680 Y78.510 E2.53004
G1 X98.460 Y79.310 E2.54655
G1 X98.260 Y79.820 E2.55745
G1 X97.880 Y80.560 E2.57400
G1 X97.580 Y81.020 E2.58493
G1 X97.240 Y81.460 E2.59599
G1 X81.460 Y97.240 E3.03999
G1 X81.020 Y97.580 E3.05105
G1 X80.560 Y97.880 E3.06198
G1 X79.820 Y98.260 E3.07853
G1 X79.310 Y98.460 E3.08943
G1 X78.510 Y98.680 E3.10594
G1 X77.970 Y98.770 E3.11683
G1 X77.690 Y98.800 E3.12243
G1 X77.140 Y98.820 E3.13338
G1 X57.310 Y98.800 E3.52792
G1 X56.510 Y98.680 E3.54401
G1 X55.990 Y98.550 E3.55467
G1 X55.480 Y98.380 E3.56537
G1 X54.990 Y98.170 E3.57598
G1 X54.510 Y97.920 E3.58674
G1 X54.060 Y97.640 E3.59729
G1 X53.420 Y97.140 E3.61345
G1 X53.220 Y96.960 E3.61880
G1 X53.030 Y96.770 E3.62415
G1 X52.510 Y96.150 E3.64025
G1 X52.350 Y95.930 E3.64566
G1 X52.070 Y95.480 E3.65620
G1 X51.710 Y94.760 E3.67222
G1 X51.440 Y94.000 E3.68827
G1 X51.310 Y93.480 E3.69893
G1 X51.220 Y92.950 E3.70963
G1 X51.190 Y92.680 E3.71503
G1 X51.190 Y72.300 E4.12051
G1 X51.260 Y71.750 E4.13154
G1 X51.310 Y71.480 E4.13700
G1 X51.530 Y70.680 E4.15351
G1 X51.730 Y70.170 E4.16441
G1 X52.110 Y69.430 E4.18096
G1 X52.410 Y68.970 E4.19189
G1 X52.659 Y68.647 E4.20000
G1 F600.000 E3.20000
G92 E0
G1 X56.124 Y71.705 F6000.000
G1 F600.000 E1.00000
G1 X71.705 Y56.124 F3000.000 E1.43840
G1 X72.453 Y55.814 E1.45451
G1 X92.993 Y55.814 E1.86317
G1 X94.186 Y57.007 E1.89672
G1 X94.186 Y77.547 E2.30538
G1 X93.876 Y78.295 E2.32149
G1 X78.295 Y93.876 E2.75989
G1 X77.547 Y94.186 E2.77600
G1 X57.007 Y94.186 E3.18466
G1 X55.814 Y92.993 E3.21821
G1 X55.814 Y72.453 E3.62687
G1 X55.856 Y72.352 E3.62905
G1 X56.493 Y72.588 F6000.000
G1 X56.700 Y72.089 F3000.000 E3.63979
G1 X72.089 Y56.700 E4.07282
G1 X72.588 Y56.493 E4.08356
G1 X92.712 Y56.493 E4.48394
G1 X93.507 Y57.288 E4.50631
G1 X93.507 Y77.412 E4.90669
G1 X93.300 Y77.911 E4.91743
G1 X77.911 Y93.300 E5.35046
G1 X77.412 Y93.507 E5.36120
G1 X57.288 Y93.507 E5.76158
G1 X56.493 Y92.712 E5.78395
G1 X56.493 Y73.288 E6.17040
G1 X57.171 Y72.723 F6000.000
G1 X57.275 Y72.474 F3000.000 E6.17577
G1 X72.474 Y57.275 E6.60343
G1 X72.723 Y57.171 E6.60880
G1 X92.431 Y57.171 E7.00090
G1 X92.829 Y57.569 E7.01209
G1 X92.829 Y77.277 E7.40419
G1 X92.725 Y77.526 E7.40956
G1 X77.526 Y92.725 E7.83722
G1 X77.277 Y92.829 E7.84259
G1 X57.569 Y92.829 E8.23469
G1 X57.171 Y92.431 E8.24588
G1 X57.171 Y73.423 E8.62405
G1 F600.000 E7.62405
G92 E0
G1 X81.760 Y66.203 F6000.000
G1 F600.000 E1.00000
G1 X81.721 Y66.030 F3000.000 E1.00354
G1 X81.693 Y65.854 E1.00707
G1 X81.677 Y65.678 E1.01061
G1 X81.671 Y65.500 E1.01414
G1 X81.677 Y65.322 E1.01768
G1 X81.693 Y65.146 E1.02121
G1 X81.721 Y64.970 E1.02474
G1 X81.760 Y64.797 E1.02828
G1 X81.809 Y64.626 E1.03183
G1 X81.870 Y64.459 E1.03536
G1 X81.940 Y64.296 E1.03889
G1 X82.021 Y64.137 E1.04243
G1 X82.112 Y63.984 E1.04597
G1 X82.211 Y63.837 E1.04950
G1 X82.320 Y63.697 E1.05304
G1 X82.438 Y63.563 E1.05657
G1 X82.563 Y63.438 E1.06010
G1 X82.697 Y63.320 E1.06365
G1 X82.837 Y63.211 E1.06718
G1 X82.984 Y63.111 E1.07072
G1 X83.137 Y63.021 E1.07425
G1 X83.296 Y62.940 E1.07779
G1 X83.459 Y62.870 E1.08133
G1 X83.626 Y62.809 E1.08486
G1 X83.796 Y62.760 E1.08840
G1 X83.970 Y62.721 E1.09193
G1 X84.145 Y62.693 E1.09547
G1 X84.322 Y62.677 E1.09901
G1 X84.500 Y62.671 E1.10254
G1 X84.678 Y62.677 E1.10608
G1 X84.855 Y62.693 E1.10961
G1 X85.030 Y62.721 E1.11315
G1 X85.204 Y62.760 E1.11669
G1 X85.374 Y62.809 E1.12022
G1 X85.541 Y62.870 E1.12376
G1 X85.704 Y62.940 E1.12729
G1 X85.863 Y63.021 E1.13083
G1 X86.016 Y63.111 E1.13437
G1 X86.163 Y63.211 E1.13790
G1 X86.303 Y63.320 E1.14144
G1 X86.437 Y63.438 E1.14498
G1 X86.562 Y63.563 E1.14851
G1 X86.680 Y63.697 E1.15205
G1 X86.789 Y63.837 E1.15558
G1 X86.888 Y63.984 E1.15911
G1 X86.979 Y64.137 E1.16265
G1 X87.060 Y64.296 E1.16619
G1 X87.130 Y64.459 E1.16973
G1 X87.191 Y64.626 E1.17327
G1 X87.240 Y64.796 E1.17680
G1 X87.279 Y64.970 E1.18033
G1 X87.307 Y65.146 E1.18387
G1 X87.323 Y65.322 E1.18740
G1 X87.329 Y65.500 E1.19094
G1 X87.323 Y65.678 E1.19448
G1 X87.307 Y65.854 E1.19801
G1 X87.279 Y66.030 E1.20155
G1 X87.240 Y66.204 E1.20508
G1 X87.191 Y66.374 E1.20862
G1 X87.130 Y66.541 E1.21216
G1 X87.060 Y66.704 E1.21569
G1 X86.979 Y66.863 E1.21923
G1 X86.888 Y67.016 E1.22277
G1 X86.789 Y67.163 E1.22630
G1 X86.680 Y67.303 E1.22984
G1 X86.562 Y67.437 E1.23337
G1 X86.437 Y67.562 E1.23690
G1 X86.303 Y67.680 E1.24045
G1 X86.163 Y67.789 E1.24398
G1 X86.016 Y67.889 E1.24751
G1 X85.863 Y67.979 E1.25105
G1 X85.704 Y68.060 E1.25459
G1 X85.541 Y68.130 E1.25813
G1 X85.374 Y68.191 E1.26166
G1 X85.204 Y68.240 E1.26520
G1 X85.030 Y68.279 E1.26873
G1 X84.855 Y68.307 E1.27227
G1 X84.678 Y68.323 E1.27581
G1 X84.500 Y68.329 E1.27934
G1 X84.322 Y68.323 E1.28288
G1 X84.145 Y68.307 E1.28641
G1 X83.970 Y68.279 E1.28995
G1 X83.796 Y68.240 E1.29349
G1 X83.626 Y68.191 E1.29702
G1 X83.459 Y68.130 E1.30056
G1 X83.296 Y68.060 E1.30409
G1 X83.137 Y67.979 E1.30763
G1 X82.984 Y67.889 E1.31117
G1 X82.837 Y67.789 E1.31470
G1 X82.697 Y67.680 E1.31824
G1 X82.563 Y67.562 E1.32178
G1 X82.438 Y67.437 E1.32531
G1 X82.320 Y67.303 E1.32884
G1 X82.211 Y67.163 E1.33238
G1 X82.112 Y67.016 E1.33591
G1 X82.021 Y66.863 E1.33945
G1 X82.016 Y66.853 E1.33967
G1 X82.616 Y66.536 F6000.000
G1 X82.554 Y66.415 F3000.000 E1.34236
G1 X82.501 Y66.292 E1.34505
G1 X82.455 Y66.165 E1.34773
G1 X82.417 Y66.035 E1.35042
G1 X82.388 Y65.903 E1.35311
G1 X82.367 Y65.769 E1.35580
G1 X82.354 Y65.635 E1.35848
G1 X82.350 Y65.500 E1.36117
G1 X82.354 Y65.365 E1.36386
G1 X82.367 Y65.231 E1.36654
G1 X82.388 Y65.097 E1.36923
G1 X82.417 Y64.965 E1.37192
G1 X82.455 Y64.835 E1.37461
G1 X82.501 Y64.708 E1.37730
G1 X82.554 Y64.585 E1.37998
G1 X82.616 Y64.464 E1.38267
G1 X82.685 Y64.348 E1.38536
G1 X82.761 Y64.236 E1.38805
G1 X82.843 Y64.129 E1.39073
G1 X82.933 Y64.028 E1.39342
G1 X83.028 Y63.933 E1.39611
G1 X83.129 Y63.843 E1.39880
G1 X83.236 Y63.760 E1.40148
G1 X83.348 Y63.685 E1.40417
G1 X83.464 Y63.616 E1.40686
G1 X83.585 Y63.554 E1.40955
G1 X83.709 Y63.501 E1.41223
G1 X83.836 Y63.455 E1.41492
G1 X83.965 Y63.417 E1.41761
G1 X84.097 Y63.388 E1.42029
G1 X84.231 Y63.367 E1.42298
G1 X84.365 Y63.354 E1.42567
G1 X84.500 Y63.350 E1.42836
G1 X84.635 Y63.354 E1.43104
G1 X84.769 Y63.367 E1.43373
G1 X84.903 Y63.388 E1.43642
G1 X85.035 Y63.417 E1.43911
G1 X85.164 Y63.455 E1.44179
G1 X85.291 Y63.501 E1.44448
G1 X85.415 Y63.554 E1.44717
G1 X85.536 Y63.616 E1.44986
G1 X85.652 Y63.685 E1.45255
G1 X85.764 Y63.760 E1.45523
G1 X85.871 Y63.843 E1.45792
G1 X85.972 Y63.933 E1.46061
G1 X86.067 Y64.028 E1.46329
G1 X86.157 Y64.129 E1.46598
G1 X86.239 Y64.236 E1.46867
G1 X86.315 Y64.348 E1.47135
G1 X86.384 Y64.464 E1.47404
G1 X86.446 Y64.585 E1.47673
G1 X86.499 Y64.708 E1.47942
G1 X86.545 Y64.836 E1.48211
G1 X86.583 Y64.965 E1.48479
G1 X86.612 Y65.097 E1.48748
G1 X86.633 Y65.231 E1.49017
G1 X86.646 Y65.365 E1.49286
G1 X86.650 Y65.500 E1.49554
G1 X86.646 Y65.635 E1.49823
G1 X86.633 Y65.769 E1.50092
G1 X86.612 Y65.903 E1.50361
G1 X86.583 Y66.035 E1.50629
G1 X86.545 Y66.164 E1.50898
G1 X86.499 Y66.292 E1.51167
G1 X86.446 Y66.415 E1.51435
G1 X86.384 Y66.536 E1.51704
G1 X86.315 Y66.652 E1.51973
G1 X86.239 Y66.764 E1.52242
G1 X86.157 Y66.871 E1.52511
G1 X86.067 Y66.972 E1.52779
G1 X85.972 Y67.067 E1.53048
G1 X85.871 Y67.157 E1.53317
G1 X85.764 Y67.240 E1.53586
G1 X85.652 Y67.315 E1.53854
G1 X85.536 Y67.384 E1.54123
G1 X85.415 Y67.446 E1.54392
G1 X85.291 Y67.499 E1.54661
G1 X85.164 Y67.545 E1.54929
G1 X85.035 Y67.583 E1.55198
G1 X84.903 Y67.612 E1.55467
G1 X84.769 Y67.633 E1.55736
G1 X84.635 Y67.646 E1.56004
G1 X84.500 Y67.650 E1.56273
G1 X84.365 Y67.646 E1.56542
G1 X84.231 Y67.633 E1.56811
G1 X84.097 Y67.612 E1.57079
G1 X83.965 Y67.583 E1.57348
G1 X83.836 Y67.545 E1.57617
G1 X83.709 Y67.499 E1.57885
G1 X83.585 Y67.446 E1.58154
G1 X83.464 Y67.384 E1.58423
G1 X83.348 Y67.315 E1.58692
G1 X83.236 Y67.240 E1.58960
G1 X83.129 Y67.157 E1.59229
G1 X83.047 Y67.084 E1.59449
G1 F600.000 E0.59449
G92 E0
G1 X67.562 Y82.563 F6000.000
G1 F600.000 E1.00000
G1 X67.680 Y82.697 F3000.000 E1.00354
G1 X67.789 Y82.837 E1.00708
G1 X67.889 Y82.984 E1.01061
G1 X67.979 Y83.137 E1.01415
G1 X68.060 Y83.296 E1.01769
G1 X68.130 Y83.459 E1.02122
G1 X68.191 Y83.626 E1.02476
G1 X68.240 Y83.796 E1.02829
G1 X68.279 Y83.970 E1.03183
G1 X68.307 Y84.145 E1.03537
G1 X68.323 Y84.322 E1.03890
G1 X68.329 Y84.500 E1.04244
G1 X68.323 Y84.678 E1.04597
G1 X68.307 Y84.855 E1.04951
G1 X68.279 Y85.030 E1.05305
G1 X68.240 Y85.204 E1.05658
G1 X68.191 Y85.374 E1.06012
G1 X68.130 Y85.541 E1.06365
G1 X68.060 Y85.704 E1.06719
G1 X67.979 Y85.863 E1.07073
G1 X67.889 Y86.016 E1.07426
G1 X67.789 Y86.163 E1.07780
G1 X67.680 Y86.303 E1.08133
G1 X67.562 Y86.437 E1.08487
G1 X67.437 Y86.562 E1.08841
G1 X67.303 Y86.680 E1.09194
G1 X67.163 Y86.789 E1.09547
G1 X67.016 Y86.888 E1.09901
G1 X66.863 Y86.979 E1.10255
G1 X66.704 Y87.060 E1.10609
G1 X66.541 Y87.130 E1.10962
G1 X66.374 Y87.191 E1.11316
G1 X66.204 Y87.240 E1.11669
G1 X66.030 Y87.279 E1.12023
G1 X65.854 Y87.307 E1.12377
G1 X65.678 Y87.323 E1.12730
G1 X65.500 Y87.329 E1.13084
G1 X65.322 Y87.323 E1.13437
G1 X65.146 Y87.307 E1.13791
G1 X64.970 Y87.279 E1.14145
G1 X64.796 Y87.240 E1.14498
G1 X64.626 Y87.191 E1.14851
G1 X64.459 Y87.130 E1.15205
G1 X64.296 Y87.060 E1.15558
G1 X64.137 Y86.979 E1.15912
G1 X63.984 Y86.888 E1.16267
G1 X63.837 Y86.789 E1.16620
G1 X63.697 Y86.680 E1.16973
G1 X63.563 Y86.562 E1.17327
G1 X63.438 Y86.437 E1.17680
G1 X63.320 Y86.303 E1.18034
G1 X63.211 Y86.163 E1.18388
G1 X63.111 Y86.016 E1.18741
G1 X63.021 Y85.863 E1.19095
G1 X62.940 Y85.704 E1.19449
G1 X62.870 Y85.541 E1.19802
G1 X62.809 Y85.374 E1.20156
G1 X62.760 Y85.204 E1.20509
G1 X62.721 Y85.030 E1.20863
G1 X62.693 Y84.855 E1.21216
G1 X62.677 Y84.678 E1.21570
G1 X62.671 Y84.500 E1.21924
G1 X62.677 Y84.322 E1.22277
G1 X62.693 Y84.145 E1.22631
G1 X62.721 Y83.970 E1.22985
G1 X62.760 Y83.796 E1.23338
G1 X62.809 Y83.626 E1.23691
G1 X62.870 Y83.459 E1.24045
G1 X62.940 Y83.296 E1.24399
G1 X63.021 Y83.137 E1.24752
G1 X63.111 Y82.984 E1.25106
G1 X63.211 Y82.837 E1.25459
G1 X63.320 Y82.697 E1.25813
G1 X63.438 Y82.563 E1.26167
G1 X63.563 Y82.438 E1.26521
G1 X63.697 Y82.320 E1.26874
G1 X63.837 Y82.211 E1.27227
G1 X63.984 Y82.112 E1.27581
G1 X64.137 Y82.021 E1.27935
G1 X64.296 Y81.940 E1.28289
G1 X64.459 Y81.870 E1.28642
G1 X64.626 Y81.809 E1.28995
G1 X64.796 Y81.760 E1.29349
G1 X64.970 Y81.721 E1.29703
G1 X65.146 Y81.693 E1.30057
G1 X65.322 Y81.677 E1.30410
G1 X65.500 Y81.671 E1.30764
G1 X65.678 Y81.677 E1.31117
G1 X65.854 Y81.693 E1.31471
G1 X66.030 Y81.721 E1.31824
G1 X66.203 Y81.760 E1.32178
G1 X66.374 Y81.810 E1.32532
G1 X66.541 Y81.870 E1.32885
G1 X66.704 Y81.940 E1.33238
G1 X66.863 Y82.021 E1.33592
G1 X67.016 Y82.112 E1.33947
G1 X67.025 Y82.117 E1.33967
G1 X66.652 Y82.685 F6000.000
G1 X66.764 Y82.761 F3000.000 E1.34236
G1 X66.871 Y82.843 E1.34504
G1 X66.972 Y82.933 E1.34773
G1 X67.067 Y83.028 E1.35042
G1 X67.157 Y83.129 E1.35311
G1 X67.240 Y83.236 E1.35579
G1 X67.315 Y83.348 E1.35848
G1 X67.384 Y83.464 E1.36117
G1 X67.446 Y83.585 E1.36386
G1 X67.499 Y83.709 E1.36654
G1 X67.545 Y83.836 E1.36923
G1 X67.583 Y83.965 E1.37192
G1 X67.612 Y84.097 E1.37461
G1 X67.633 Y84.231 E1.37729
G1 X67.646 Y84.365 E1.37998
G1 X67.650 Y84.500 E1.38267
G1 X67.646 Y84.635 E1.38536
G1 X67.633 Y84.769 E1.38804
G1 X67.612 Y84.903 E1.39073
G1 X67.583 Y85.035 E1.39342
G1 X67.545 Y85.164 E1.39611
G1 X67.499 Y85.291 E1.39879
G1 X67.446 Y85.415 E1.40148
G1 X67.384 Y85.536 E1.40417
G1 X67.315 Y85.652 E1.40686
G1 X67.240 Y85.764 E1.40954
G1 X67.157 Y85.871 E1.41223
G1 X67.067 Y85.972 E1.41492
G1 X66.972 Y86.067 E1.41761
G1 X66.871 Y86.157 E1.42029
G1 X66.764 Y86.239 E1.42298
G1 X66.652 Y86.315 E1.42567
G1 X66.536 Y86.384 E1.42836
G1 X66.415 Y86.446 E1.43104
G1 X66.292 Y86.499 E1.43373
G1 X66.164 Y86.545 E1.43642
G1 X66.035 Y86.583 E1.43911
G1 X65.903 Y86.612 E1.44179
G1 X65.769 Y86.633 E1.44448
G1 X65.635 Y86.646 E1.44717
G1 X65.500 Y86.650 E1.44986
G1 X65.365 Y86.646 E1.45254
G1 X65.231 Y86.633 E1.45523
G1 X65.097 Y86.612 E1.45792
G1 X64.965 Y86.583 E1.46061
G1 X64.836 Y86.545 E1.46329
G1 X64.708 Y86.499 E1.46598
G1 X64.585 Y86.446 E1.46867
G1 X64.464 Y86.384 E1.47135
G1 X64.348 Y86.315 E1.47404
G1 X64.236 Y86.239 E1.47673
G1 X64.129 Y86.157 E1.47942
G1 X64.028 Y86.067 E1.48210
G1 X63.933 Y85.972 E1.48479
G1 X63.843 Y85.871 E1.48748
G1 X63.760 Y85.764 E1.49017
G1 X63.685 Y85.652 E1.49285
G1 X63.616 Y85.536 E1.49554
G1 X63.554 Y85.415 E1.49823
G1 X63.501 Y85.291 E1.50092
G1 X63.455 Y85.164 E1.50361
G1 X63.417 Y85.035 E1.50629
G1 X63.388 Y84.903 E1.50898
G1 X63.367 Y84.769 E1.51167
G1 X63.354 Y84.635 E1.51436
G1 X63.350 Y84.500 E1.51704
G1 X63.354 Y84.365 E1.51973
G1 X63.367 Y84.231 E1.52242
G1 X63.388 Y84.097 E1.52511
G1 X63.417 Y83.965 E1.52779
G1 X63.455 Y83.836 E1.53048
G1 X63.501 Y83.709 E1.53317
G1 X63.554 Y83.585 E1.53585
G1 X63.616 Y83.464 E1.53854
G1 X63.685 Y83.348 E1.54123
G1 X63.760 Y83.236 E1.54392
G1 X63.843 Y83.129 E1.54660
G1 X63.933 Y83.028 E1.54929
G1 X64.028 Y82.933 E1.55198
G1 X64.129 Y82.843 E1.55467
G1 X64.236 Y82.761 E1.55735
G1 X64.348 Y82.685 E1.56004
G1 X64.464 Y82.616 E1.56273
G1 X64.585 Y82.554 E1.56542
G1 X64.708 Y82.501 E1.56810
G1 X64.835 Y82.455 E1.57079
G1 X64.965 Y82.417 E1.57348
G1 X65.097 Y82.388 E1.57617
G1 X65.231 Y82.367 E1.57886
G1 X65.365 Y82.354 E1.58154
G1 X65.500 Y82.350 E1.58423
G1 X65.635 Y82.354 E1.58692
G1 X65.769 Y82.367 E1.58960
G1 X65.903 Y82.388 E1.59229
G1 X66.011 Y82.412 E1.59449
G1 F600.000 E0.59449
G92 E0
G1 X58.529 Y91.471 F6000.000
G1 F600.000 E1.00000
G1 X58.529 Y73.139 F3000.000 E1.36473
G1 X73.139 Y58.529 E1.77584
G1 X91.471 Y58.529 E2.14057
G1 X91.471 Y76.861 E2.50531
G1 X76.861 Y91.471 E2.91641
G1 X59.229 Y91.471 E3.26721
G1 X57.850 Y92.150 F6000.000
G1 X57.850 Y72.858 F3000.000 E3.65104
G1 X72.858 Y57.850 E4.07332
G1 X92.150 Y57.850 E4.45715
G1 X92.150 Y77.142 E4.84098
G1 X77.142 Y92.150 E5.26326
G1 X58.550 Y92.150 E5.63316
G1 X59.702 Y91.288 F6000.000
G1 X58.712 Y90.298 F3000.000 E5.66139
G1 X58.712 Y89.326 F6000.000
G1 X60.674 Y91.288 F3000.000 E5.71732
G1 X61.646 Y91.288 F6000.000
G1 X58.712 Y88.354 F3000.000 E5.80097
G1 X58.712 Y87.382 F6000.000
G1 X62.618 Y91.288 F3000.000 E5.91231
G1 X63.590 Y91.288 F6000.000
G1 X58.712 Y86.410 F3000.000 E6.05137
G1 X58.712 Y85.438 F6000.000
G1 X64.562 Y91.288 F3000.000 E6.21813
G1 X65.533 Y91.288 F6000.000
G1 X58.712 Y84.467 F3000.000 E6.41260
G1 X58.712 Y83.495 F6000.000
G1 X66.505 Y91.288 F3000.000 E6.63477
G1 X67.477 Y91.288 F6000.000
G1 X63.200 Y87.011 F3000.000 E6.75671
G1 X62.989 Y86.800 F6000.000
G1 X58.712 Y82.523 F3000.000 E6.87864
G1 X58.712 Y81.551 F6000.000
G1 X62.506 Y85.345 F3000.000 E6.98681
G1 X62.540 Y84.408 F6000.000
G1 X58.712 Y80.579 F3000.000 E7.09596
G1 X58.712 Y79.607 F6000.000
